Sources/FrostedUI/Resources/Icons.xcassets/rectangleStack12.imageset/rectangle-stack-12.svg

<svg width="12" height="12" viewBox="0 0 12 12" fill="none" xmlns="http://www.w3.org/2000/svg" data-fui-icon="true">
  <path
    d="M9.5 7.90918C10.7426 7.90918 11.75 8.91654 11.75 10.1592V10.3867C11.7499 10.8008 11.4141 11.1367 11 11.1367C10.5859 11.1367 10.2501 10.8008 10.25 10.3867V10.1592C10.25 9.74497 9.91421 9.40918 9.5 9.40918H2.5C2.08579 9.40918 1.75 9.74497 1.75 10.1592V10.3867C1.74986 10.8008 1.41412 11.1367 1 11.1367C0.585875 11.1367 0.250144 10.8008 0.25 10.3867V10.1592C0.25 8.91654 1.25736 7.90918 2.5 7.90918H9.5ZM9.5 1C10.7426 1 11.75 2.00736 11.75 3.25V4.34082C11.75 5.58346 10.7426 6.59082 9.5 6.59082H2.5C1.25736 6.59082 0.25 5.58346 0.25 4.34082V3.25C0.25 2.00736 1.25736 1 2.5 1H9.5ZM2.5 2.5C2.08579 2.5 1.75 2.83579 1.75 3.25V4.34082C1.75 4.75503 2.08579 5.09082 2.5 5.09082H9.5C9.91421 5.09082 10.25 4.75503 10.25 4.34082V3.25C10.25 2.83579 9.91421 2.5 9.5 2.5H2.5Z"
    fill="currentColor"
  />
</svg>

<svg xmlns="http://www.w3.org/2000/svg" width="12" height="12" fill="none" data-fui-icon="true" viewBox="0 0 12 12"><path fill="currentColor" d="M9.5 7.91a2.25 2.25 0 0 1 2.25 2.25v.227a.75.75 0 0 1-1.5 0v-.228a.75.75 0 0 0-.75-.75h-7a.75.75 0 0 0-.75.75v.228a.75.75 0 0 1-1.5 0v-.228A2.25 2.25 0 0 1 2.5 7.91zM9.5 1a2.25 2.25 0 0 1 2.25 2.25v1.09A2.25 2.25 0 0 1 9.5 6.59h-7A2.25 2.25 0 0 1 .25 4.34V3.25A2.25 2.25 0 0 1 2.5 1zm-7 1.5a.75.75 0 0 0-.75.75v1.09c0 .415.336.75.75.75h7a.75.75 0 0 0 .75-.75V3.25a.75.75 0 0 0-.75-.75z"/></svg>
